X:1
T:DeSoto, 88.86
T:DeSoto, 88.86
T:Anonymous, harmonized by C. B., 1896
T:Public Domain Courtesy of the Cyber Hymnal™
C:Anonymous, harmonized by C. B., 1896
Z:Public Domain
Z:Courtesy of the Cyber Hymnal™
%%score ( 1 2 ) 3
L:1/8
Q:1/4=117
M:3/4
K:Eb
V:1 treble 
V:2 treble 
V:3 bass 
V:1
 [EG]2 E2 [EF]2 | [EG]4 [EG]2 | A2 E2 [EF]2 | [EG]6 | [DF]2 [^C=E]2 [DF]2 | [FA]4 [=EG]2 | %6
 F2 [CE]2 [EG]2 | [DF]6 | [EB]2 [Ec]2 [EB]2 | B4 [EG]2 | B2 c2 [_EG]2 | [FA]6 | [EG]2 [EA]2 [EB]2 | %13
 [EF]4 [DF]2 | E6 |] %15
V:2
 x2 E2 x2 | x6 | E4 x2 | x6 | x6 | x6 | F2 x4 | x6 | x6 | G2 F2 x2 | =E4 x2 | x6 | x6 | x6 | E6 |] %15
V:3
 [E,B,]2 [E,G,]2 [E,A,]2 | [E,B,]4 [E,_D]2 | [A,,C]4 [A,,_C]2 | [E,B,]6 | %4
 [B,,A,]2 [B,,G,]2 [B,,A,]2 | [F,,C]4 [G,,C]2 | [A,,C]2 [C,G,]2 [=A,,C]2 | [B,,B,]6 | %8
 [G,B,]2 [^F,=A,]2 [G,B,]2 | [D,B,]4 [E,B,]2 | [C,C]4 [C,C]2 | [F,C]2 [E,_C]2 [D,B,]2 | %12
 [E,B,]2 [C,C]2 [G,,_D]2 | [A,,C]4 [B,,A,]2 | [E,G,]6 |] %15

